assets/features/home/subscription/intro-offer-tag-large.svg

<svg width="82" height="82" viewBox="0 0 82.2549 82.2549" fill="none" xmlns="http://www.w3.org/2000/svg">
<path d="M78.4709 31.668C79.121 34.2342 76.0071 41.2587 69.1286 52.7402C68.5205 53.7549 67.5353 54.4876 66.3884 54.7779L25.4089 65.158C24.2586 65.4493 23.0396 65.2718 22.0201 64.6644C21.0007 64.0571 20.2642 63.0696 19.9728 61.9193L12.6257 32.9144C12.4814 32.3448 12.4506 31.7522 12.5353 31.1707C12.62 30.5892 12.8184 30.03 13.1191 29.5251C13.4199 29.0203 13.8172 28.5796 14.2883 28.2283C14.7594 27.877 15.2951 27.6219 15.8648 27.4776L56.8447 17.0969C57.9914 16.8066 59.2065 16.9821 60.2241 17.5851C71.7391 24.4072 77.8209 29.1018 78.4709 31.668ZM61.5145 35.9638C61.3264 35.2216 60.994 34.5237 60.5363 33.91C60.0785 33.2962 59.5043 32.7786 58.8465 32.3868C58.1887 31.9949 57.4602 31.7364 56.7025 31.6261C55.9448 31.5158 55.1729 31.5559 54.4306 31.7439C53.6884 31.932 52.9905 32.2644 52.3768 32.7221C51.763 33.1799 51.2454 33.7541 50.8536 34.4119C50.4617 35.0697 50.2032 35.7982 50.0929 36.5559C49.9826 37.3136 50.0226 38.0855 50.2107 38.8278C50.3988 39.57 50.7313 40.2678 51.1891 40.8816C51.6469 41.4953 52.2211 42.0128 52.8789 42.4046C53.5368 42.7964 54.2653 43.0548 55.023 43.165C55.7807 43.2753 56.5527 43.2352 57.2949 43.0471C58.0371 42.8589 58.735 42.5265 59.3487 42.0687C59.9624 41.6108 60.4799 41.0366 60.8717 40.3788C61.2635 39.7209 61.5219 38.9924 61.6321 38.2347C61.7424 37.477 61.7023 36.705 61.5142 35.9628L61.5145 35.9638Z" fill="#FF4A4A"/>
<path d="M46.574 45.724C45.9977 45.8783 45.4447 45.8627 44.9152 45.6771C44.3857 45.4915 43.9193 45.1657 43.5161 44.6998C43.1154 44.2332 42.817 43.6543 42.6209 42.9632L44.4735 42.4671C44.6031 42.8892 44.8133 43.2006 45.1043 43.4016C45.3942 43.5988 45.6923 43.6564 45.9985 43.5744C46.2378 43.5103 46.4294 43.3762 46.5732 43.172C46.7171 42.9677 46.8044 42.712 46.8352 42.4047C46.865 42.0936 46.8296 41.7555 46.7291 41.3904C46.6317 41.0163 46.4916 40.7042 46.3088 40.4541C46.1286 40.2033 45.9239 40.0257 45.6946 39.9214C45.467 39.8126 45.2322 39.7906 44.9903 39.8554C44.7603 39.9129 44.5626 40.0447 44.3971 40.2506C44.2342 40.4559 44.1349 40.7028 44.099 40.9912L42.2882 40.979L40.9596 34.6419L46.0311 33.284L46.6355 35.5411L43.1348 36.4784L43.6849 39.2592L43.7312 39.2468C43.7766 38.8911 43.9169 38.5706 44.1522 38.2853C44.389 37.9956 44.6939 37.8008 45.067 37.7009C45.5404 37.5741 46.0059 37.6233 46.4632 37.8484C46.9221 38.0691 47.3346 38.4355 47.7007 38.9478C48.0693 39.4594 48.352 40.0829 48.5489 40.8182C48.762 41.614 48.8221 42.3536 48.7294 43.0372C48.6393 43.7201 48.4108 44.2986 48.0442 44.7726C47.679 45.2422 47.189 45.5593 46.574 45.724Z" fill="#9A0021"/>
<path d="M37.1631 48.0737L34.0612 36.4887L39.457 35.0439L40.0658 37.318L36.5806 38.2511L37.2167 40.627L40.3585 39.7858L40.9688 42.0654L37.8271 42.9066L39.0736 47.5621L37.1631 48.0737Z" fill="#9A0021"/>
<path d="M30.8055 49.7767L27.7036 38.1916L33.0994 36.7469L33.7083 39.0209L30.223 39.9541L30.8591 42.33L34.0009 41.4888L34.6113 43.7684L31.4695 44.6096L32.716 49.2651L30.8055 49.7767Z" fill="#9A0021"/>
<path d="M28.1391 44.2821C28.4804 45.5568 28.6024 46.682 28.5052 47.6578C28.408 48.6336 28.1353 49.428 27.6873 50.041C27.2418 50.6534 26.6653 51.0543 25.9577 51.2437C25.2475 51.4339 24.546 51.3731 23.8531 51.0615C23.1603 50.7499 22.5285 50.1977 21.9577 49.4048C21.3885 48.6075 20.9337 47.5733 20.5935 46.3025C20.2522 45.0278 20.1289 43.9029 20.2235 42.9278C20.3207 41.952 20.5921 41.158 21.0375 40.5456C21.483 39.9333 22.0608 39.5321 22.771 39.3419C23.4786 39.1525 24.1783 39.2116 24.8702 39.5195C25.5646 39.8266 26.1977 40.3785 26.7695 41.1752C27.3412 41.9718 27.7978 43.0075 28.1391 44.2821ZM26.1861 44.805C25.9841 44.0508 25.7402 43.4331 25.4542 42.952C25.1707 42.4701 24.8568 42.1318 24.5124 41.9371C24.1705 41.7417 23.8091 41.695 23.4283 41.7969C23.0501 41.8982 22.7604 42.1192 22.5594 42.46C22.3583 42.8008 22.2541 43.251 22.2468 43.8107C22.242 44.3697 22.3406 45.0264 22.5426 45.7806C22.7445 46.5348 22.9872 47.1529 23.2707 47.6347C23.5567 48.1159 23.8719 48.4538 24.2163 48.6485C24.5608 48.8432 24.9221 48.89 25.3004 48.7887C25.6812 48.6867 25.9708 48.4657 26.1693 48.1256C26.3704 47.7848 26.4733 47.3349 26.478 46.7759C26.4853 46.2162 26.388 45.5593 26.1861 44.805Z" fill="#9A0021"/>
</svg>

<svg xmlns="http://www.w3.org/2000/svg" width="82" height="82" fill="none" viewBox="0 0 82.255 82.255"><path fill="#ff4a4a" d="M78.47 31.668q.976 3.849-9.341 21.072a4.47 4.47 0 0 1-2.74 2.038l-40.98 10.38a4.475 4.475 0 0 1-5.436-3.239l-7.347-29.005a4.475 4.475 0 0 1 3.239-5.436l40.98-10.381a4.47 4.47 0 0 1 3.38.488q17.27 10.233 18.245 14.083m-16.955 4.296a5.832 5.832 0 0 0-11.422.592 5.83 5.83 0 1 0 11.421-.593"/><path fill="#9a0021" d="M46.574 45.724a2.75 2.75 0 0 1-1.659-.047 3.27 3.27 0 0 1-1.399-.977q-.6-.7-.895-1.737l1.852-.496q.195.633.631.935.435.295.895.172a1 1 0 0 0 .574-.402q.216-.306.262-.767.045-.467-.106-1.015a2.7 2.7 0 0 0-.42-.936 1.57 1.57 0 0 0-.614-.533 1 1 0 0 0-.705-.066q-.344.087-.593.396a1.45 1.45 0 0 0-.298.74l-1.81-.012-1.33-6.337 5.072-1.358.605 2.257-3.501.937.55 2.781.046-.012q.069-.533.421-.962.355-.434.915-.584a1.93 1.93 0 0 1 1.396.147q.69.331 1.238 1.1.552.767.848 1.87.32 1.194.18 2.22-.135 1.023-.685 1.735-.547.704-1.47.951m-9.411 2.35-3.102-11.585 5.396-1.445.609 2.274-3.485.933.636 2.376 3.142-.841.61 2.28-3.142.84 1.247 4.656zm-6.357 1.703-3.102-11.585 5.395-1.445.61 2.274-3.486.933.636 2.376 3.142-.841.61 2.28-3.141.84 1.246 4.656zm-2.666-5.495q.51 1.912.365 3.376t-.818 2.383a3.07 3.07 0 0 1-1.73 1.203 3.06 3.06 0 0 1-2.104-.182q-1.04-.468-1.895-1.657-.855-1.196-1.364-3.102-.513-1.913-.37-3.375.145-1.464.814-2.382a3.08 3.08 0 0 1 1.733-1.204 3.07 3.07 0 0 1 2.1.178q1.041.46 1.899 1.655.857 1.196 1.37 3.107m-1.954.523q-.303-1.131-.732-1.853-.425-.723-.942-1.015a1.4 1.4 0 0 0-1.084-.14 1.4 1.4 0 0 0-.869.663q-.3.51-.312 1.35-.007.84.296 1.97.302 1.132.728 1.855.428.72.945 1.014.517.291 1.084.14.57-.153.87-.663.3-.511.308-1.35.01-.84-.292-1.971"/></svg>
